icons/svg/video-layout-stack_28.svg

<svg width="28" height="28" viewBox="0 0 28 28" fill="none" xmlns="http://www.w3.org/2000/svg">
<path fill-rule="evenodd" clip-rule="evenodd" d="M3 4H9V10H1V6C1 4.89543 1.89543 4 3 4ZM10 10V4H18V10H10ZM19 10H27V6C27 4.89543 26.1046 4 25 4H19V10ZM1 11V22C1 23.1046 1.89543 24 3 24H25C26.1046 24 27 23.1046 27 22V11H1ZM0 6C0 4.34315 1.34315 3 3 3H25C26.6569 3 28 4.34315 28 6V22C28 23.6569 26.6569 25 25 25H3C1.34315 25 0 23.6569 0 22V6Z" fill="#121212"/>
</svg>

<?xml version="1.0" encoding="utf-8"?>
<!-- Generator: Adobe Illustrator 25.0.0, SVG Export Plug-In . SVG Version: 6.00 Build 0)  -->
<svg version="1.1" id="Layer_1" xmlns="http://www.w3.org/2000/svg" xmlns:xlink="http://www.w3.org/1999/xlink" x="0px" y="0px"
	 viewBox="0 0 28 28" style="enable-background:new 0 0 28 28;" xml:space="preserve">
<style type="text/css">
	.st0{fill-rule:evenodd;clip-rule:evenodd;fill:#121212;}
</style>
<path class="st0" d="M3,4h6v6H1V6C1,4.9,1.9,4,3,4z M10,10V4h8v6H10z M19,10h8V6c0-1.1-0.9-2-2-2h-6V10z M1,11v11c0,1.1,0.9,2,2,2
	h22c1.1,0,2-0.9,2-2V11H1z M0,6c0-1.7,1.3-3,3-3h22c1.7,0,3,1.3,3,3v16c0,1.7-1.3,3-3,3H3c-1.7,0-3-1.3-3-3V6z"/>
</svg>
